.icons/Gruvbox-Plus-Light/apps/16/hook.svg

<svg width="16" height="16" version="1.1" xmlns="http://www.w3.org/2000/svg">
  <defs>
    <style id="current-color-scheme" type="text/css">.ColorScheme-Text { color:#282828; } .ColorScheme-Highlight { color:#458588; }</style>
  </defs>
  <path class="ColorScheme-Text" d="m1.41 5.603v1.974h-1.41c-1e-3 0.127 2e-3 0.693 0 0.846h1.41v1.974h0.846v-4.794h-0.846zm3.807 0c-1.324 0-2.397 1.073-2.397 2.397s1.073 2.397 2.397 2.397 2.397-1.073 2.397-2.397-1.073-2.397-2.397-2.397zm5.358 0c-1.324 0-2.397 1.073-2.397 2.397s1.073 2.397 2.397 2.397 2.397-1.073 2.397-2.397-1.073-2.397-2.397-2.397zm2.961 0v4.794h0.846v-1.662l1.617 1.393c0-0.368 0-0.785 1e-3 -1.099l-1.25-1.02 1.249-1.213v-1.116l-1.617 1.607v-1.684h-0.846zm-2.914 0.752c0.882 0 1.598 0.716 1.598 1.598 0 0.883-0.716 1.598-1.598 1.598-0.883 0-1.598-0.715-1.598-1.598 0-0.882 0.715-1.598 1.598-1.598zm-5.405 0.094c0.856 0 1.551 0.694 1.551 1.551s-0.695 1.551-1.551 1.551c-0.857 0-1.551-0.694-1.551-1.551s0.694-1.551 1.551-1.551z" fill="currentColor"/>
</svg>

<svg width="16" height="16" version="1.1" xmlns="http://www.w3.org/2000/svg">
  <defs>
    <style type="text/css" id="current-color-scheme">.ColorScheme-Text { color:#282828; } .ColorScheme-Highlight { color:#458588; }</style>
  </defs>
  <path class="ColorScheme-Text" fill="currentColor" d="M 1.41 5.603 L 1.41 7.577 L 0 7.577 C -0.001 7.704 0.002 8.27 0 8.423 L 1.41 8.423 L 1.41 10.397 L 2.256 10.397 L 2.256 5.603 L 1.41 5.603 Z M 5.217 5.603 C 3.893 5.603 2.82 6.676 2.82 8 C 2.82 9.324 3.893 10.397 5.217 10.397 C 6.541 10.397 7.614 9.324 7.614 8 C 7.614 6.676 6.541 5.603 5.217 5.603 Z M 10.575 5.603 C 9.251 5.603 8.178 6.676 8.178 8 C 8.178 9.324 9.251 10.397 10.575 10.397 C 11.899 10.397 12.972 9.324 12.972 8 C 12.972 6.676 11.899 5.603 10.575 5.603 Z M 13.536 5.603 L 13.536 10.397 L 14.382 10.397 L 14.382 8.735 L 15.999 10.128 C 15.999 9.76 15.999 9.343 16 9.029 L 14.75 8.009 L 15.999 6.796 C 15.999 6.469 15.999 6.015 15.999 5.68 L 14.382 7.287 L 14.382 5.603 L 13.536 5.603 Z M 10.622 6.355 C 11.504 6.355 12.22 7.071 12.22 7.953 C 12.22 8.836 11.504 9.551 10.622 9.551 C 9.739 9.551 9.024 8.836 9.024 7.953 C 9.024 7.071 9.739 6.355 10.622 6.355 Z M 5.217 6.449 C 6.073 6.449 6.768 7.143 6.768 8 C 6.768 8.857 6.073 9.551 5.217 9.551 C 4.36 9.551 3.666 8.857 3.666 8 C 3.666 7.143 4.36 6.449 5.217 6.449 Z"/>
</svg>
